!!!!SEGMENT: pl-kk--kk-i-269--001_anonim--rorate-caeli.krn
!!!cenid: 16xx:783
!!!COM: Anonim
!!!COM-rismid: pe30004985
!!!CDT:
!!!CNT:
!!!OTL: Rorate caeli
!!!PDT:
!!!AGN: Sacred
!!!SMS-siglum: PL-Kk
!!!SMS-shelfmark: Kk.I.269
!!!SMS-shelfwork: 001 W
!!!SMS-variant:
!!!SMS-altvar:
!!!NIFC-rismid: 1001143713
!!!system-decoration: [(s1,s2,s3,s4)]s5
**kern	**text	**kern	**text	**kern	**text	**kern	**text	**kern	**text
*part5	*part5	*part4	*part4	*part3	*part3	*part2	*part2	*part1	*part1
*staff5	*staff5	*staff4	*staff4	*staff3	*staff3	*staff2	*staff2	*staff1	*staff1
*Iempty	*	*Iempty	*	*Itenor	*	*Ialto	*	*Ivox	*
*I"Baſso Ripieno.	*	*I"Basſo.	*	*I"Tenore.	*	*I"Alto.	*	*I"Canto.	*
*I'B rip	*	*I'B	*	*I'T	*	*I'A	*	*I'S	*
*clefF4	*	*clefF4	*	*clefC4	*	*clefC3	*	*clefC1	*
*k[]	*	*k[]	*	*k[]	*	*k[]	*	*k[]	*
*a:	*	*a:	*	*a:	*	*a:	*	*a:	*
*M2/2	*	*M2/2	*	*M2/2	*	*M2/2	*	*M2/2	*
*met(c|)	*	*met(c|)	*	*met(c|)	*	*met(c|)	*	*met(c|)	*
=1	=1	=1	=1	=1	=1	=1	=1	=1	=1
*	*	*	*	*	*	*	*	*2\right	*
!	!	!	!	!	!	!LO:TX:t=P:problem:ozdobna litera R na początku pięciolinii	!	!LO:TX:t=P:problem:ozdobna litera R na początku pięciolinii	!
!LO:TX:t=P:problem:ozdobna litera R na początku pięciolinii	!	!LO:TX:t=P:problem:ozdobna litera R na początku pięciolinii	!	!LO:TX:t=P:problem:ozdobna litera R na początku pięciolinii	!	!	!	!	!
!LO:TX:a:Bi:t=Canon à 4.:rj	!	!LO:TX:a:Bi:t=Canon a 4.:rj	!	!LO:TX:a:Bi:t=Canon a 4.:rj	!	!LO:TX:a:Bi:t=Canon a 4.:rj	!	!LO:TX:a:Bi:t=Canon a 4.:rj	!
!LO:TX:a:Bi:t=Lente.	!	!	!	!	!	!LO:TX:a:B:t=1.	!	!LO:TX:a:Bi:t=Lente Forte	!
00r	.	00r	.	0r	.	1r	.	2ee\	Ro-
.	.	.	.	.	.	.	.	4b\	-ra-
.	.	.	.	.	.	.	.	4b\	-te
=2	=2	=2	=2	=2	=2	=2	=2	=2	=2
*	*	*	*	*	*	*2\right	*	*	*
.	.	.	.	.	.	2a\	Ro-	2cc\	Cae-
.	.	.	.	.	.	4e\	-ra-	2ee\	-li
.	.	.	.	.	.	4e\	-te	.	.
=3	=3	=3	=3	=3	=3	=3	=3	=3	=3
.	.	.	.	1r	.	2f\	Cae-	2dd\	de-
.	.	.	.	.	.	2a\	-li	2a\	-su-
=4	=4	=4	=4	=4	=4	=4	=4	=4	=4
*	*	*	*	*2\right	*	*	*	*	*
.	.	.	.	2e\	Ro-	2g\	de-	2b\	-per
.	.	.	.	4B\	-ra-	2d\	-su-	2dd\	et
.	.	.	.	4B\	-te	.	.	.	.
=5	=5	=5	=5	=5	=5	=5	=5	=5	=5
*2\right	*	*2\right	*	*	*	*	*	*	*
2A\	Ro-	2A\	Ro-	2c\	Cae-	2e\	-per	2cc\	nu-
4E\	-ra-	4E\	-ra-	2e\	-li	2g\	et	2g/	-bes
4E\	-te	4E\	-te	.	.	.	.	.	.
=6	=6	=6	=6	=6	=6	=6	=6	=6	=6
2F\	Cae-	2F\	Cae-	2d\	de-	2f\	nu-	2a\	plu-
2A\	-li	2A\	-li	2A/	-su-	2c/	-bes	2cc\	-ant
=7	=7	=7	=7	=7	=7	=7	=7	=7	=7
2G\	de-	2G\	de-	2B\	-per	2d\	plu-	2b\	Iu-
2D\	-su-	2D/	-su-	2d\	et	2f\	-ant	2a\	-ſtum
=8	=8	=8	=8	=8	=8	=8	=8	=8	=8
!LO:TX:t=P:problem:oddech jako rozdzielacz słów:global	!	!	!	!	!	!	!	!	!
2E,<\	-per,	2E\	-per	2c\	nu-	2e\	Iu-	2r	.
2G\	et	2G\	et	2G/	-beſ	2d\	-stum	2b\	plu-
!	!	!	!	!	!	!LO:LB:g=original	!	!LO:LB:g=original	!
=9	=9	=9	=9	=9	=9	=9	=9	=9	=9
2F\	nu-	2F\	nu-	2A/	plu-	2r	.	2cc\	-ant
2C/	-bes	2C/	-bes	2c\	-ant	2e\	plu-	2r	.
=10	=10	=10	=10	=10	=10	=10	=10	=10	=10
2D\	plu-	2D/	plu-	2B\	ju-	2f\	-ant	2dd\	et
2F\	-ant	2F\	-ant	2A/	-stum	2r	.	4a\	nu-
.	.	.	.	.	.	.	.	4a\	-bes
!	!	!	!	!LO:LB:g=original	!	!	!	!	!
=11	=11	=11	=11	=11	=11	=11	=11	=11	=11
2E\	Ju-	2E\	ju-	2r	.	2g\	et	2b\	plu-
2D\	-stum	2D/	-ſtum	2B\	plu-	4d\	nu-	2dd\	-ant
.	.	.	.	.	.	4d\	-beſ	.	.
=12	=12	=12	=12	=12	=12	=12	=12	=12	=12
2r	.	2r	.	2c\	-ant	2e\	plu-	2cc\	plu-
2E\	plu-	2E\	plu-	2r	.	2g\	-ant	2g/	-ant
=13	=13	=13	=13	=13	=13	=13	=13	=13	=13
2F\	-ant	2F\	-ant	2d\	et	2f\	plu-	(>2a\	Iu-
2r	.	2r	.	4A/	nu-	2c/	-ant	2cc\)	.
.	.	.	.	4A/	-beſ	.	.	.	.
!	!	!LO:LB:g=original	!	!	!	!	!	!	!
=14	=14	=14	=14	=14	=14	=14	=14	=14	=14
2G\	et	2G\	et	2B\	plu-	(>2d\	Iu-	2b\	-stum
4D/	nu-	4D/	nu-	2d\	-ant	2f\)	.	2r	.
4D/	-bes	4D/	-bes	.	.	.	.	.	.
=15	=15	=15	=15	=15	=15	=15	=15	=15	=15
2E\	plu-	2E\	plu-	2c\	plu-	2e\	-stum	2ee\	et
2G\	-ant	2G\	-ant	2G/	-ant	2r	.	4b\	nu-
.	.	.	.	.	.	.	.	4b\	-bes
=16	=16	=16	=16	=16	=16	=16	=16	=16	=16
*	*ij	*	*	*	*	*	*	*	*
2F\	plu-	2F\	plu-	2A/	ju-	2a\	et	2cc\	plu-
2C/	-ant	2C/	-ant	2c\	.	4e\	nu-	2ee\	-ant
.	.	.	.	.	.	4e\	-bes	.	.
*	*Xij	*	*	*	*	*	*	*	*
=17	=17	=17	=17	=17	=17	=17	=17	=17	=17
(>2D\	Ju-	2D/	Ju-	2B\	-stum	2f\	plu-	(>2dd\	Iu-
2F\)	.	2F\	.	2r	.	2a\	-ant	2a\)	.
=18-	=18-	=18	=18	=18	=18	=18	=18	=18	=18
2E\	-stum	2E\	-ſtum	2e\	et	(>2g\	Iu-	2b\	-stum
2r	.	2r	.	4B\	nu-	2d\)	.	2r	.
.	.	.	.	4B\	-beſ	.	.	.	.
!LO:LB:g=original	!	!	!	!	!	!	!	!LO:LB:g=original	!
=19	=19	=19	=19	=19	=19	=19	=19	=19	=19
2A\	et	2A\	et	2c\	plu-	2e\	-stum	2cc\	et
4E\	nu-	4E\	nu-	2e\	-ant	2r	.	4g/	nu-
4E\	-bes	4E\	-beſ	.	.	.	.	4g/	-bes
!	!	!	!	!	!	!LO:LB:g=original	!	!	!
=20	=20	=20	=20	=20	=20	=20	=20	=20	=20
!	!	!	!	!	!	!	!	!LO:SIC:v:l:s=plu-	!
2F\	plu-	2F\	plu-	2d\	ju-	2f\	et	2a\	pl-
2A\	-ant	2A\	-ant	2A/	.	4c/	nu-	2cc\	-ant
.	.	.	.	.	.	4c/	-bes	.	.
!	!	!	!	!LO:LB:g=original	!	!	!	!	!
=21	=21	=21	=21	=21	=21	=21	=21	=21	=21
(>2G\	Ju-	2G\	Ju-	2B\	-stum	2d\	plu-	2b\	Iu-
2D\)	.	2D/	.	2r	.	2f\	-ant	2a\	-ſtum
=22	=22	=22	=22	=22	=22	=22	=22	=22	=22
2E\	-stum	2E\	-stum	2c\	et	2e\	Iu-	2ee\	et
2r	.	2rBB	.	4G/	nu-	2d\	-stum.	4b\	nu-
.	.	.	.	4G/	-beſ	.	.	4b\	-beſ
=23	=23	=23	=23	=23	=23	=23	=23	=23	=23
2F\	et	2F\	et	2A/	plu-	2a\	et	2cc\	plu-
4C/	nu-	4C/	nu-	2c\	-ant	4e\	nu-	2ee\	-ant
4C/	-bes	4C/	-bes	.	.	4e\	-bes	.	.
=24	=24	=24	=24	=24	=24	=24	=24	=24	=24
2D\	plu-	2D/	plu-	2B\	ju-	2f\	plu-	2dd\	Iu-
2F\	-ant	2F\	-ant	2A/	.	(<4c/	-ant	[<2a\	.
.	.	.	.	.	.	4d/)	.	.	.
!	!	!LO:LB:g=original	!	!	!	!	!	!	!
=25-	=25-	=25	=25	=25	=25	=25	=25	=25	=25
1E	Ju-	1E	Ju-	1B	.	1e	Iu-	2a\]	.
.	.	.	.	.	.	.	.	2g#X\	.
=26-	=26-	=26	=26	=26	=26	=26	=26	=26	=26
!LO:N:vis=0	!	!LO:N:vis=0	!	!LO:N:vis=0	!	!LO:N:vis=0	!	!LO:N:vis=0	!
[y1AA;>	-ſt(um).	[y1AA	-ſtum	[y1A	-stum	[y1e;>	-ſtum.	[y1a;>	-st(um)
=27-	=27-	=27-	=27-	=27-	=27-	=27-	=27-	=27-	=27-
1AA]yy	.	1AA]yy	.	1A]yy	.	1e]yy	.	1a]yy	.
=28||	=28||	=28||	=28||	=28||	=28||	=28||	=28||	=28||	=28||
!	!	!LO:TX:a:Bi:t=5	!	!	!	!LO:TX:a:B:t=1.	!	!	!
00r	.	00r	.	00r	.	1r	.	2b\	A-
.	.	.	.	.	.	.	.	4b\	-pe-
.	.	.	.	.	.	.	.	4b\	-ri-
=29	=29	=29	=29	=29	=29	=29	=29	=29	=29
.	.	.	.	.	.	2e\	A-	2cc\	-a-
.	.	.	.	.	.	4e\	-pe-	2b\	-tur
.	.	.	.	.	.	4e\	-ri-	.	.
!	!	!	!	!	!	!	!	!LO:LB:g=original	!
=30	=30	=30	=30	=30	=30	=30	=30	=30	=30
.	.	.	.	.	.	2f\	-a-	2a\	ter-
.	.	.	.	.	.	2e\	-tur	4cc\	-ra
.	.	.	.	.	.	.	.	4cc\	et
!	!	!	!	!	!	!LO:LB:g=original	!	!	!
=31	=31	=31	=31	=31	=31	=31	=31	=31	=31
.	.	.	.	.	.	2d\	ter-	4.dd\	ger-
.	.	.	.	.	.	.	.	8dd\	-mi-
.	.	.	.	.	.	4f\	-ra	2a\	-net
.	.	.	.	.	.	4f\	et	.	.
=32	=32	=32	=32	=32	=32	=32	=32	=32	=32
1r	.	1r	.	2B\	A-	4.g\	ger-	2b\	Sal-
.	.	.	.	.	.	8g\	-mi-	.	.
.	.	.	.	4B\	-pe-	2d\	-net	2dd\	-va-
.	.	.	.	4B\	-ri-	.	.	.	.
=33	=33	=33	=33	=33	=33	=33	=33	=33	=33
2E\	a-	2E\	A-	2c\	-a-	2e\	Sal-	2g/	-to-
4E\	-pe-	4E\	-pe-	2B\	-tur	2g\	-va-	2b\	-rem
4E\	-ri-	4E\	-ri-	.	.	.	.	.	.
=34	=34	=34	=34	=34	=34	=34	=34	=34	=34
!	!	!	!	!	!	!	!	!LO:TX:a:B:t=1.	!
2F\	-a-	2F\	-a-	2A/	ter-	2c/	-to-	1r	.
2E\	-t(ur)	2E\	-tur	4c\	-ra	2e\	-rem	.	.
.	.	.	.	4c\	et	.	.	.	.
=35	=35	=35	=35	=35	=35	=35	=35	=35	=35
!	!	!	!	!	!	!LO:TX:a:B:t=1.	!	!	!
2D\	ter-	2D/	ter-	4.d\	ger-	1r	.	2dd\	et
.	.	.	.	8d\	-mi-	.	.	.	.
4F,<\	-ra	4F\	-ra	2A/	-net	.	.	2cc\	.
4F\	et	4F\	et	.	.	.	.	.	.
!	!	!	!	!LO:LB:g=original	!	!	!	!	!
=36	=36	=36	=36	=36	=36	=36	=36	=36	=36
4.G\	ger-	4.G\	ger-	2B\	Sal-	2g\	et	(>2b\	ger-
8G\	-mi-	8G\	-mi-	.	.	.	.	.	.
2D/	-net	2D/	-net	2d\	-va-	2f\	.	4.a\)	.
.	.	.	.	.	.	.	.	8a\	-mi-
=37	=37	=37	=37	=37	=37	=37	=37	=37	=37
2E\	Sal-	2E\	Sal-	2G/	-to-	(>2e\	ger-	2g/	-net
2G\	-va-	2G\	-va-	2B\	-rem	4.d\)	.	2r	.
.	.	.	.	.	.	8d\	-mi-	.	.
=38-	=38-	=38	=38	=38	=38	=38	=38	=38	=38
2C/	-to-	2C/	-to-	1r	.	2c/	-net	2cc\	Sal-
2E\	-rem	2E\	-rem	.	.	2r	.	2b\	-va-
=39	=39	=39	=39	=39	=39	=39	=39	=39	=39
!	!	!LO:TX:a:i:t=1.	!	!	!	!	!	!	!
1r	.	1r	.	2d\	et	2f\	Sal-	(>4.a\	-to-
.	.	.	.	.	.	.	.	8b\)	.
.	.	.	.	2c\	.	2e\	-va-	2cc\	.
!LO:LB:g=original	!	!	!	!	!	!	!	!	!
=40	=40	=40	=40	=40	=40	=40	=40	=40	=40
(>2G\	et	(>2G\	et	(>2B\	ger-	(>4.d\	-to-	2dd\	-rem
.	.	.	.	.	.	8e\)	.	.	.
2F\)	.	2F\)	.	4.A/)	.	2f\	.	2r	.
.	.	.	.	8A/	-mi-	.	.	.	.
!	!	!LO:LB:g=original	!	!	!	!	!	!LO:LB:g=original	!
=41	=41	=41	=41	=41	=41	=41	=41	=41	=41
2E\	ger-	(>2E\	ger-	2G/	-net	2g\	-rem	(>4.b\	ger-
.	.	.	.	.	.	.	.	8cc\)	.
4.D/	.	4.D/)	.	2r	.	2r	.	4.dd\	.
8D/	-mi-	8D/	-mi-	.	.	.	.	8dd\	-mi-
!	!	!	!	!	!	!LO:LB:g=original	!	!	!
=42	=42	=42	=42	=42	=42	=42	=42	=42	=42
2C/	-net	2C/	-net	2c\	Sal-	(>4.e\	ger-	2g/	-net
.	.	.	.	.	.	8f\)	.	.	.
2r	.	2r	.	2B\	-va-	4.g\	.	2r	.
.	.	.	.	.	.	8g\	-mi-	.	.
=43	=43	=43	=43	=43	=43	=43	=43	=43	=43
2F\	Sal-	2F\	Sal-	4.A\	-to-	2c/	-net	2a\	Sal-
.	.	.	.	8B\	.	.	.	.	.
2E\	-va-	2E\	-va-	2c\	.	2r	.	2g/	-va-
=44	=44	=44	=44	=44	=44	=44	=44	=44	=44
(>4.D\	-to-	4.D/	-to-	2d\	-rem	2d\	Sal-	(<4.f/	-to-
8E\)	.	8E\	.	.	.	.	.	8g/	.
2F\	.	2F\	.	2r	.	2c/	-va-	2a\)	.
=45	=45	=45	=45	=45	=45	=45	=45	=45	=45
!	!	!	!	!	!	!	!	!LO:TX:t=P:problem:w źródle oddech jako rozdzielacz słów:global	!
2G,<\	-rem	2G\	-rem	2B\	Sal-	(<4.B/	-to-	2d,</	-rem.
.	.	.	.	.	.	8c/)	.	.	.
*	*ij	*	*	*	*	*	*	*	*
4F\	Sal-	4F\	Sal-	2A/	-va-	2d\	.	4a\	sal-
4F\	-va-	4F\	-va-	.	.	.	.	4a\	-va-
=46-	=46-	=46	=46	=46	=46	=46	=46	=46	=46
1E	-to-	1E	-to-	(>4B\	-to-	1e	.	(<4g#X/	-to-
.	.	.	.	4c\	.	.	.	2a\)	.
.	.	.	.	2B\)	.	.	.	.	.
.	.	.	.	.	.	.	.	4g#X/	.
=47-	=47-	=47	=47	=47	=47	=47	=47	=47	=47
!LO:N:vis=0	!	!LO:N:vis=0	!	!LO:N:vis=0	!	!LO:N:vis=0	!	!LO:N:vis=0	!
[y1AA;>	-rem	[y1AA	-rem.	[y1A	-rem	[y1e;>	-rem.	[y1a;>	-rem
*	*Xij	*	*	*	*	*	*	*	*
=48-	=48-	=48-	=48-	=48-	=48-	=48-	=48-	=48-	=48-
1AA]yy	.	1AA]yy	.	1A]yy	.	1e]yy	.	1a]yy	.
!	!	!	!	!LO:LB:g=original	!	!	!	!	!
=||	=||	=||	=||	=||	=||	=||	=||	=||	=||
*	*	*	*	*clefC4	*	*	*	*	*
*M2/2	*	*	*	*M2/2	*	*	*	*	*
*met(c|)	*	*	*	*met(c|)	*	*	*	*	*
!	!	!	!	!LO:TX:t=P:problem:ozdobna litera B na początku pięciolinii	!	!	!	!LO:TX:a:t=P:w źródle brak kreski taktowej [niezaznaczone w kodzie z powodu błednego renderingu]:problem	!
!	!	!LO:TX:a:t=4	!	!	!	!LO:TX:a:Bi:t=6.	!	!LO:TX:a:Bi:t=2	!
00r	.	00r	.	2r	.	00r	.	0r	.
.	.	.	.	2e\	Be-	.	.	.	.
=49	=49	=49	=49	=49	=49	=49	=49	=49	=49
.	.	.	.	2d\	-ne-	.	.	.	.
.	.	.	.	2B\	-di-	.	.	.	.
=50	=50	=50	=50	=50	=50	=50	=50	=50	=50
.	.	.	.	2c\	-xi-	.	.	2r	.
.	.	.	.	2A/	-ſti	.	.	2ee\	Be-
=51	=51	=51	=51	=51	=51	=51	=51	=51	=51
.	.	.	.	(<2B\	Do-	.	.	2dd\	-ne-
.	.	.	.	4.G#X/)	.	.	.	2b\	-di-
.	.	.	.	8G#/	-mi-	.	.	.	.
!	!	!	!	!	!	!	!	!LO:LB:g=original	!
=52-	=52-	=52	=52	=52	=52	=52	=52	=52	=52
2r	.	2r	.	2A/	-ne	0r	.	2cc\	-xi-
2A\	Be-	2A\	Be-	2r	.	.	.	2a\	-ſti
=53	=53	=53	=53	=53	=53	=53	=53	=53	=53
2G\	-ne-	2G\	-ne-	4r	.	.	.	(<2b\	Do-
!	!	!	!	!LO:TX:a:t=P:w źródle tekst poprawiany przez skryptora:problem	!	!	!	!	!
.	.	.	.	4B\	be-	.	.	.	.
2E\	-di-	2E\	-di-	4e\	-ne-	.	.	4.g#X/)	.
.	.	.	.	4e\	-di-	.	.	.	.
.	.	.	.	.	.	.	.	8g#/	-mi-
=54	=54	=54	=54	=54	=54	=54	=54	=54	=54
2F\	-xi-	2F\	-xi-	4A/	-xi-	2r	.	2a\	-ne
.	.	.	.	4A/	-sti	.	.	.	.
2D\	-ſti	2D/	-ſti	2d\	ter-	2a\	Be-	2r	.
!	!	!LO:LB:g=original	!	!	!	!	!	!	!
=55	=55	=55	=55	=55	=55	=55	=55	=55	=55
(<2E\	Do-	(<2E\	Do-	2G/	-ram	2g\	-ne-	4r	.
.	.	.	.	.	.	.	.	4b\	be-
4.C#X/)	.	4.C#X/)	.	4r	.	2e\	-di-	4ee\	-ne-
.	.	.	.	(>4e\	Tu-	.	.	4ee\	-di-
8C#/	-mi-	8C#/	-mi-	.	.	.	.	.	.
=56	=56	=56	=56	=56	=56	=56	=56	=56	=56
2D\	-ne	2D/	-ne	2d\)	.	2f\	-xi-	4a\	-xi-
.	.	.	.	.	.	.	.	4a\	-ſti
2r	.	2r	.	2d\	-am	2d\	-ſti	2dd\	ter-
!	!	!	!	!LO:LB:g=original	!	!LO:LB:g=original	!	!	!
=57	=57	=57	=57	=57	=57	=57	=57	=57	=57
!	!	!	!	!LO:TX:a:B:t=1.	!	!	!	!	!
4r	.	4r	.	1r	.	(<2e\	Do-	2g/	-ram
4E\	be-	4E\	be-	.	.	.	.	.	.
4A\	-ne-	4A\	-ne-	.	.	4.c#X/)	.	4r	.
4A\	-di-	4A\	-di-	.	.	.	.	(>4ee\	Tu-
.	.	.	.	.	.	8c#/	-mi-	.	.
=58	=58	=58	=58	=58	=58	=58	=58	=58	=58
4D/	-xi-	4D/	-xi-	2r	.	2d\	-ne	2dd\)	.
4D/	-ſti	4D/	-ſti	.	.	.	.	.	.
2G\	ter-	2G\	ter-	4d\	a-	2r	.	2dd\	-am
.	.	.	.	4d\	-ver-	.	.	.	.
!LO:LB:g=original	!	!	!	!	!	!	!	!	!
=59	=59	=59	=59	=59	=59	=59	=59	=59	=59
!	!	!	!	!	!	!	!	!LO:TX:a:B:t=1.	!
2C/	-ram	2C/	-ram	2c\	-ti-	4r	.	1r	.
.	.	.	.	.	.	4e\	be-	.	.
4r	.	4r	.	4A/	-ſti	4a\	-ne-	.	.
(>4A\	tu-	(4A\	Tu-	4A/	ca-	4a\	-di-	.	.
=60	=60	=60	=60	=60	=60	=60	=60	=60	=60
2G\)	.	2G\)	.	2B\	-pti-	4d\	-xi-	2r	.
.	.	.	.	.	.	4d\	-ſti	.	.
2G\	-am	2G\	-am	2G/	-vi-	2g\	ter-	4dd\	a-
.	.	.	.	.	.	.	.	4dd\	-ver-
=61	=61	=61	=61	=61	=61	=61	=61	=61	=61
!	!	!LO:TX:a:B:t=1.	!	!	!	!	!	!	!
1r	.	1r	.	2A/	-ta-	2c/	-ram	2cc\	-ti-
.	.	.	.	2F#X/	-tem	4r	.	4a\	-ſti
.	.	.	.	.	.	(>4a\	Tu-	4a\	ca-
=62-	=62-	=62	=62	=62	=62	=62	=62	=62	=62
2r	.	2r	.	8G\L	Ja-	2g\)	.	2b\	-pti-
.	.	.	.	8B\	.	.	.	.	.
.	.	.	.	8c\	.	.	.	.	.
.	.	.	.	8d\J	.	.	.	.	.
4G\	a-	4G\	a-	2e\	.	2g\	-am	2g/	-vi-
4G\	-ver-	4G\	-ver-	.	.	.	.	.	.
!	!	!	!	!	!	!	!	!LO:PB:g=original	!
=63	=63	=63	=63	=63	=63	=63	=63	=63	=63
!	!	!	!	!	!	!LO:TX:a:B:t=1.	!	!	!
2F\	-ti-	2F\	-ti-	8A\L	.	1r	.	2a\	-ta-
.	.	.	.	8A\	.	.	.	.	.
.	.	.	.	8B\	.	.	.	.	.
.	.	.	.	8c\J	.	.	.	.	.
4D/	-ſti	4D/	-ſti	2d\	.	.	.	2f#X/	-tem
4D/	Ca-	4D/	Ca-	.	.	.	.	.	.
=64	=64	=64	=64	=64	=64	=64	=64	=64	=64
2E\	-pti-	2E\	-pti-	2G/	-cob	2r	.	8g\L	Ja-
.	.	.	.	.	.	.	.	8b\	.
.	.	.	.	.	.	.	.	8cc\	.
.	.	.	.	.	.	.	.	8dd\J	.
2C/	-vi-	2C/	-vi-	4r	.	4g\	a-	2ee\	.
.	.	.	.	4e\	ca-	4g\	-ver-	.	.
!	!	!LO:LB:g=original	!	!	!	!	!	!	!
=65	=65	=65	=65	=65	=65	=65	=65	=65	=65
2D/	-ta-	2D/	-ta-	4d\	-pti-	2f\	-ti-	8a\L	.
.	.	.	.	.	.	.	.	8a\	.
.	.	.	.	4d\	-vi-	.	.	8b\	.
.	.	.	.	.	.	.	.	8cc\J	.
2BB/	-tem	2BB/	-tem	4d\	-ta-	4d\	-ſti	2dd\	.
.	.	.	.	4d\	-tem	4d\	ca-	.	.
!	!	!	!	!LO:PB:g=original	!	!	!	!	!
=66	=66	=66	=66	=66	=66	=66	=66	=66	=66
(>8C\L	Ja-	8C\L	Ja-	2r	.	2e\	-pti-	2g/	-cob
8E\	.	(>8E\	.	.	.	.	.	.	.
8F\)	.	8F\	.	.	.	.	.	.	.
8G\J	.	8G\J)	.	.	.	.	.	.	.
!	!	!	!	!	!	!LO:SIC:v:custos d	!	!	!
2A\	.	2A\	.	2c\	ca-	2c/	-vi-	4r	.
.	.	.	.	.	.	.	.	4ee\	ca-
!	!	!	!	!	!	!LO:PB:g=original	!	!	!
=67	=67	=67	=67	=67	=67	=67	=67	=67	=67
(>8D\L	.	8D\L	.	4B\	-pti-	2d\	-ta-	4dd\	-pti-
8D\	.	(>8D\	.	.	.	.	.	.	.
8E\)	.	8E\	.	4B\	-vi-	.	.	4dd\	-vi-
8F\J	.	8F\J)	.	.	.	.	.	.	.
2G\	.	2G\	.	4B\	-ta-	2B/	-tem	4dd\	-ta-
.	.	.	.	4B\	-tem	.	.	4dd\	-tem
=68	=68	=68	=68	=68	=68	=68	=68	=68	=68
2C/	-cob	2C/	-cob	8A\L	Ja-	8c\L	Ja-	2r	.
.	.	.	.	8c\	.	8e\	.	.	.
.	.	.	.	8d\	.	8f\	.	.	.
.	.	.	.	8e\J	.	8g\J	.	.	.
4r	.	4r	.	2f\	.	2a\	.	2cc\	ca-
4A\	ca-	4A\	ca-	.	.	.	.	.	.
=69	=69	=69	=69	=69	=69	=69	=69	=69	=69
4G\	-pti-	4G\	-pti-	8B\L	.	8d\L	.	4b\	-pti-
.	.	.	.	8B\	.	8d\	.	.	.
4G\	-vi-	4G\	-vi-	8c\	.	8e\	.	4b\	-vi-
.	.	.	.	8d\J	.	8f\J	.	.	.
4G\	-ta-	4G\	-ta-	2e\	.	2g\	.	4b\	-ta-
4G\	-tem	4G\	-tem	.	.	.	.	4b\	-tem
!	!	!	!	!	!	!	!	!LO:LB:g=original	!
=70	=70	=70	=70	=70	=70	=70	=70	=70	=70
2r	.	2r	.	8A\L	.	2c/	-cob	8a\L	Ja-
.	.	.	.	8A\	.	.	.	8cc\	.
.	.	.	.	8B\	.	.	.	8dd\	.
.	.	.	.	8c\J	.	.	.	8ee\J	.
2F\	Ja-	2F\	Ja-	2d\	.	4r	.	2ff\	.
.	.	.	.	.	.	4a\	ca-	.	.
=71	=71	=71	=71	=71	=71	=71	=71	=71	=71
!	!	!LO:TX:a:t=1	!	!	!	!	!	!	!
1E	.	1E	.	8G\L	.	4g\	-pti-	8b\L	.
.	.	.	.	8G\	.	.	.	8b\	.
.	.	.	.	8A\	.	4g\	-vi-	8cc\	.
.	.	.	.	8B\J	.	.	.	8dd\J	.
.	.	.	.	2c\	.	4g\	-ta-	2ee\	.
.	.	.	.	.	.	4g\	-tem	.	.
=72-	=72-	=72	=72	=72	=72	=72	=72	=72	=72
2D\	.	2D/	.	4F/	.	4r	.	2a\	.
.	.	.	.	(>8d\L	.	(>4f\	Ja-	.	.
.	.	.	.	8c\J)	.	.	.	.	.
2E\	.	2E\	.	2B\	.	2e\)	.	2g#X/	.
=73-	=73-	=73	=73	=73	=73	=73	=73	=73	=73
!LO:N:vis=0	!	!LO:N:vis=0	!	!	!	!	!	!	!
[y1AA;>	-cob.	[y1AA;>	-cob.	1A	-cob.	1e	-cob.	1a;>	-cob
!	!	!	!	!LO:LB:g=original	!	!	!	!	!
=74-	=74-	=74-	=74-	=74	=74	=74	=74	=74	=74
!	!	!	!	!LO:TX:a:t=P:problem:pominięty fragment	!	!LO:TX:a:t=P:problem:pominięty fragment	!	!LO:TX:a:t=P:problem:pominięty fragment	!
1AA]yy	.	1AA]yy	.	1ryy	.	1ryy	.	1ryy	.
!LO:LB:g=original	!	!LO:PB:g=original	!	!	!	!	!	!	!
=||	=||	=||	=||	=||	=||	=||	=||	=||	=||
*M2/2	*	*M2/2	*	*M2/2	*	*M2/2	*	*M2/2	*
*met(c|)	*	*met(c|)	*	*met(c|)	*	*met(c|)	*	*met(c|)	*
!	!	!	!	!	!	!LO:TX:a:t=P:w źródle wykreślony przez skryptora mały fragment na początku pięciolinii:problem	!	!	!
!	!	!LO:TX:a:Bi:t=5	!	!LO:TX:a:Bi:t=2	!	!	!	!	!
00r	.	00r	.	0r	.	0r	.	2r	.
!	!	!	!	!	!	!	!	!LO:TX:a:Bi:t=S.:rj	!
.	.	.	.	.	.	.	.	2a\	Glo-
=75	=75	=75	=75	=75	=75	=75	=75	=75	=75
.	.	.	.	.	.	.	.	4b\	.
.	.	.	.	.	.	.	.	4cc\	.
.	.	.	.	.	.	.	.	4dd\	.
.	.	.	.	.	.	.	.	4b\	.
=76	=76	=76	=76	=76	=76	=76	=76	=76	=76
.	.	.	.	2r	.	1r	.	4cc\	.
.	.	.	.	.	.	.	.	4dd\	.
.	.	.	.	2A/	Glo-	.	.	4ee\	.
.	.	.	.	.	.	.	.	4cc\	.
!	!	!	!	!	!	!	!	!LO:LB:g=original	!
=77	=77	=77	=77	=77	=77	=77	=77	=77	=77
.	.	.	.	4B\	.	2r	.	4.dd\	.
.	.	.	.	4c\	.	.	.	.	.
.	.	.	.	.	.	.	.	8dd\	-ri-
.	.	.	.	4d\	.	2d\	Glo-	2dd\	-a
.	.	.	.	4B\	.	.	.	.	.
=78	=78	=78	=78	=78	=78	=78	=78	=78	=78
1r	.	1r	.	4c\	.	4e\	.	4cc\	glo-
.	.	.	.	4d\	.	4f\	.	8b\	-ri-
.	.	.	.	.	.	.	.	8a\	-a
.	.	.	.	4e\	.	4g\	.	4g/	Pa-
.	.	.	.	4c\	.	4e\	.	8cc\	-tri
.	.	.	.	.	.	.	.	8cc\	et
=79	=79	=79	=79	=79	=79	=79	=79	=79	=79
2r	.	2r	.	4.d\	.	4f\	.	4a\	Fi-
!	!	!	!	!	!	!LO:SIC:v:s=4a\	!	!	!
.	.	.	.	.	.	4g\	.	8a\	-li-
.	.	.	.	8d\	-ri-	.	.	8a\	-o
2D\	Glo-	2D/	Glo-	2d\	-a	4a\	.	4a\	et
.	.	.	.	.	.	4f\	.	4dd\	Spi-
=80	=80	=80	=80	=80	=80	=80	=80	=80	=80
4E\	.	4E\	.	4c\	glo-	4.g\	.	(>4g\	-ri-
4F\	.	4F\	.	8B\	-ri-	.	.	4a\)	.
.	.	.	.	8A\	-a	8g\	-ri-	.	.
4G\	.	4G\	.	4G/	Pa-	2g\	-a	4b\	-tu-
4E\	.	4E\	.	8c\	-tri	.	.	4g/	-i
.	.	.	.	8c\	et	.	.	.	.
=81	=81	=81	=81	=81	=81	=81	=81	=81	=81
4F\	.	4F\	.	4A\	Fi-	4f\	glo-	4a\	San-
4G\	.	4G\	.	8A\	-li-	8e\	-ri-	(>4b\	.
.	.	.	.	8A\	-o	8d\	-a	.	.
!	!	!	!	!LO:LB:g=original	!	!LO:LB:g=original	!	!	!
4A\	.	4A\	.	4A/	et	4c/	Pa-	4cc\)	.
4F\	.	4F\	.	4d\	Spi-	8f\	-tri	4a\	.
.	.	.	.	.	.	8f\	et	.	.
=82	=82	=82	=82	=82	=82	=82	=82	=82	=82
4.G\	.	4.G\	.	(<4G/	-ri-	4d\	Fi-	4b\	.
.	.	.	.	4A/)	.	8d\	-li-	(>4cc\	.
8G\	-ri-	8G\	-ri-	.	.	8d\	-o	.	.
2G\	-a	2G\	-a	4B\	-tu-	4d\	et	4dd\)	.
.	.	.	.	4G/	-i	4g\	Spi-	4b\	.
!	!	!	!	!	!	!	!	!LO:LB:g=original	!
=83	=83	=83	=83	=83	=83	=83	=83	=83	=83
8F\L	Pa-	8F\	glo-	4A\	San-	(>4c\	-ri-	2cc\	.
8E\J	-tri	8E\	-ri-	.	.	.	.	.	.
4D\	et	4D\	-a	4B\	.	4d\)	.	.	.
4C/	Fi-	4C/	Pa-	4c\	.	4e\	-tu-	2g/	-cto
8F\	-li-	8F\	-tri	4A\	.	4c\	-i	.	.
8F\	-o	8F\	et	.	.	.	.	.	.
=84	=84	=84	=84	=84	=84	=84	=84	=84	=84
4D/	Glo-	4D/	Fi-	4B\	.	4d\	San-	2r	.
8D/	-ri-	8D/	-li-	4c\	.	4e\	.	.	.
8D/	-a	8D/	-o	.	.	.	.	.	.
!	!	!LO:LB:g=original	!	!	!	!	!	!	!
4D/	et	4D/	et	4d\	.	4f\	.	4r	.
4G\	Spi-	4G\	Spi-	4B\	.	4d\	.	8b\	Si-
.	.	.	.	.	.	.	.	8b\	-cut
=85	=85	=85	=85	=85	=85	=85	=85	=85	=85
(<4C/	-ri-	(<4C/	-ri-	2c\	.	4e\	.	4ee\	e-
4D/)	.	4D/)	.	.	.	4f\	.	(>8dd\L	-rat
.	.	.	.	.	.	.	.	8cc\J)	.
4E/	-tu-	4E\	-tu-	2G/	-cto	4g\	.	4b\	in
4C/	-i	4C/	-i	.	.	4e\	.	4cc\	prin-
=86	=86	=86	=86	=86	=86	=86	=86	=86	=86
4D\	San-	4D\	San-	2r	.	2f\	.	4.a\	-ci-
4E\	.	4E\	.	.	.	.	.	.	.
.	.	.	.	.	.	.	.	8a\	-pi-
4F\	.	4F\	.	4r	.	2c/	-cto	4a\	-o
4D\	.	4D\	.	8B\	Si-	.	.	4dd\	et
.	.	.	.	8B\	-cut	.	.	.	.
!	!	!	!	!	!	!LO:LB:g=original	!	!	!
=87	=87	=87	=87	=87	=87	=87	=87	=87	=87
4E\	.	4E\	.	4e\	e-	2r	.	1g	nunc
4F\	.	4F\	.	(>8d\L	-rat	.	.	.	.
.	.	.	.	8c\J)	.	.	.	.	.
4G\	.	4G\	.	4B\	in	4r	.	.	.
4E\	.	4E\	.	4c\	prin-	8e\	Si-	.	.
.	.	.	.	.	.	8e\	-cut	.	.
!	!	!	!	!LO:LB:g=original	!	!	!	!	!
=88	=88	=88	=88	=88	=88	=88	=88	=88	=88
2F\	.	2F\	.	4.A\	-ci-	4a\	e-	2r	.
.	.	.	.	.	.	(>8g\L	-rat	.	.
.	.	.	.	8A\	-pi-	8f\J)	.	.	.
2C/	-cto	2C/	-cto	4A\	-o	4e\	in	4r	.
.	.	.	.	4d\	et	4f\	prin-	4a\	et
=89	=89	=89	=89	=89	=89	=89	=89	=89	=89
2r	.	2r	.	1G	nunc	4.d\	-ci-	(>4b\	sem-
.	.	.	.	.	.	.	.	4cc\)	.
.	.	.	.	.	.	8d\	-pi-	.	.
4r	.	4r	.	.	.	4d\	-o	(>4dd\	-per
8E\	Si-	8E\	Si-	.	.	4g\	et	4b\)	.
8E\	-cut	8E\	-cut	.	.	.	.	.	.
!LO:LB:g=original	!	!	!	!	!	!	!	!	!
=90	=90	=90	=90	=90	=90	=90	=90	=90	=90
4A\	e-	4A\	e-	2r	.	1c	nunc	4cc\	et
8G\L	-rat	(>8G\L	-rat	.	.	.	.	4dd\	in
8F\J	.	8F\J)	.	.	.	.	.	.	.
!	!	!	!	!	!	!	!	!LO:LB:g=original	!
4E\	in	4E\	in	4r	.	.	.	4ee\	sae-
4F\	prin-	4F\	prin-	4A\	et	.	.	8cc\	-cu-
.	.	.	.	.	.	.	.	8cc\	-la
!	!	!LO:LB:g=original	!	!	!	!	!	!	!
=91	=91	=91	=91	=91	=91	=91	=91	=91	=91
4.D\	-ci-	4.D\	-ci-	(>4B\	sem-	2r	.	4dd\	sae-
.	.	.	.	4c\)	.	.	.	4dd\	-cu-
8D\	-pi-	8D\	-pi-	.	.	.	.	.	.
4D\	-o	4D\	-o	(>4d\	-per	4r	.	4dd\	-lo-
4G\	et	4G\	et	4B\)	.	4d\	et	4dd\	-rum
=92	=92	=92	=92	=92	=92	=92	=92	=92	=92
1C	nunc	1C	nunc	4c\	et	(>4e\	sem-	4cc\	sae-
.	.	.	.	4d\	in	4f\)	.	8b\L	-cu-
.	.	.	.	.	.	.	.	8a\J	.
.	.	.	.	4e\	sae-	(>4g\	-per	4g/	-lo-
.	.	.	.	8c\	-cu-	4e\)	.	4cc\	.
.	.	.	.	8c\	-la	.	.	.	.
=93	=93	=93	=93	=93	=93	=93	=93	=93	=93
2r	.	2r	.	4d\	sae-	4f\	et	2a,<\	-rum
.	.	.	.	4d\	-cu-	4g\	in	.	.
4r	.	4r	.	4d\	-lo-	4a\	ſae-	4a\	sae-
4D\	et	4D\	et	4d\	-rum	8f\	-cu-	4dd\	-cu-
.	.	.	.	.	.	8f\	-la	.	.
!	!	!	!	!	!	!LO:LB:g=original	!	!	!
=94	=94	=94	=94	=94	=94	=94	=94	=94	=94
(>4E\	sem-	(>4E\	sem-	4c\	sae-	4g\	sae-	4g\	-lo-
4F\)	.	4F\)	.	(>8B\L	-cu-	4g\	-cu-	4a\	.
.	.	.	.	8A\J)	.	.	.	.	.
(>4G\	-per	(>4G\	-per	4G/	-lo-	4g\	-lo-	4b\	.
4E\)	.	4E\)	.	4c\	.	4g\	-rum	4g\	.
!	!	!	!	!LO:LB:g=original	!	!	!	!	!
=95	=95	=95	=95	=95	=95	=95	=95	=95	=95
4F\	et	4F\	et	2.A/	.	4f\	ſae-	4a\	.
4G\	in	4G\	in	.	.	(>8e\L	-cu-	4b\	.
.	.	.	.	.	.	8d\J)	.	.	.
4A\	sae-	4A\	Sae-	.	.	4c/	-lo-	4cc\	.
8F\	-cu-	8F\	-cu-	[<4d\	.	4f\	.	4a\	.
8F\	-la	8F\	-la	.	.	.	.	.	.
=96	=96	=96	=96	=96	=96	=96	=96	=96	=96
4E\	sae-	4E\	sae-	4d\]	.	4B/	.	4g#X/	.
4E\	-cu-	4E\	-cu-	4c\	.	4c/	.	2a\	.
2E\	-lo-	2E\	-lo-	2B\	.	2e\	.	.	.
.	.	.	.	.	.	.	.	4g#X/	.
=97-	=97-	=97	=97	=97	=97	=97	=97	=97	=97
!LO:TX:t=P:problem:w źródle podwójna kreska taktowa	!	!	!	!	!	!	!	!	!
1AA;>	-rum	1AA	-rum	1c#X;>	-rum	1e;>	-rum	1a	-rum
!	!	!LO:LB:g=original	!	!	!	!	!	!LO:LB:g=original	!
=98||	=98||	=98	=98	=98	=98	=98	=98	=98	=98
!	!	!LO:TX:a:Bi:t=3.	!	!LO:TX:a:i:t=S.	!	!LO:TX:a:Bi:t=4	!	!LO:TX:a:Bi:t=1.	!
0r	.	0r	.	4e\	A-	00r	.	1r	.
.	.	.	.	8d\L	.	.	.	.	.
.	.	.	.	8c\J	.	.	.	.	.
.	.	.	.	4B\	.	.	.	.	.
.	.	.	.	4e\	.	.	.	.	.
=99	=99	=99	=99	=99	=99	=99	=99	=99	=99
.	.	.	.	4A\	.	.	.	2r	.
.	.	.	.	4B\	.	.	.	.	.
.	.	.	.	4c\	.	.	.	4ee\	A-
.	.	.	.	4d\	.	.	.	8dd\L	.
.	.	.	.	.	.	.	.	8cc\J	.
=100	=100	=100	=100	=100	=100	=100	=100	=100	=100
1r	.	1r	.	4e\	.	.	.	4b\	.
.	.	.	.	(>8d\L	.	.	.	4ee\	.
.	.	.	.	8c\J)	.	.	.	.	.
.	.	.	.	2d\	.	.	.	4a\	.
.	.	.	.	.	.	.	.	4b\	.
=101	=101	=101	=101	=101	=101	=101	=101	=101	=101
4A\	A-	4A\	A-	2c\	-men	.	.	4cc\	.
(>8G\L	.	8G\L	.	.	.	.	.	4dd\	.
8F\J)	.	8F\J	.	.	.	.	.	.	.
4E\	.	4E\	.	2r	.	.	.	4ee\	.
4A\	.	4A\	.	.	.	.	.	8dd\L	.
.	.	.	.	.	.	.	.	8cc\J	.
=102	=102	=102	=102	=102	=102	=102	=102	=102	=102
4D\	.	4D\	.	4d\	A-	2r	.	2dd\	.
(>4E\	.	4E\	.	4G\	.	.	.	.	.
4F\)	.	4F\	.	4A\	.	4a\	A-	2cc\	-men
4G\	.	4G\	.	4B\	.	(>8g\L	.	.	.
.	.	.	.	.	.	8f\J)	.	.	.
=103	=103	=103	=103	=103	=103	=103	=103	=103	=103
4A\	.	4A\	.	4c\	.	4e\	.	2r	.
8G\L	.	(>8G\L	.	4d\	.	4a\	.	.	.
8F\J	.	8F\J)	.	.	.	.	.	.	.
!	!	!	!	!LO:LB:g=original	!	!	!	!	!
!	!	!	!	!	!	!LO:TX:a:t=P:w źródle kreska taktowa zamieniona zosłana na nutę 4d [poprawka skryptora]:problem	!	!	!
2G\	.	2G\	.	2B\	-men	4d\	.	4dd\	A-
.	.	.	.	.	.	4e\	.	4g/	.
=104	=104	=104	=104	=104	=104	=104	=104	=104	=104
!	!	!	!	!LO:TX:a:B:t=1.	!	!	!	!	!
2F\	-men	2F\	-men	1r	.	4f\	.	4a\	.
.	.	.	.	.	.	4g\	.	4b\	.
2r	.	2r	.	.	.	4a\	.	4cc\	.
.	.	.	.	.	.	(>8g\L	.	4dd\	.
.	.	.	.	.	.	8f\J)	.	.	.
!LO:LB:g=original	!	!	!	!	!	!LO:LB:g=original	!	!	!
=105	=105	=105	=105	=105	=105	=105	=105	=105	=105
4G\	A-	4G\	a-	2r	.	2g\	.	2b\	-men
4C/	.	4C\	.	.	.	.	.	.	.
4D/	.	4D\	.	4d\	A-	2f\	-men	2r	.
4E\	.	4E\	.	8c\L	.	.	.	.	.
.	.	.	.	8B\J	.	.	.	.	.
!	!	!	!	!	!	!	!	!LO:PB:g=original	!
=106	=106	=106	=106	=106	=106	=106	=106	=106	=106
!	!	!	!	!	!	!	!	!LO:TX:a:Bi:t=1.	!
4F\	.	4F\	.	4A\	.	2r	.	1r	.
4G\	.	4G\	.	4d\	.	.	.	.	.
2E\	-men	2E\	-men	4G/	.	4g\	A-	.	.
.	.	.	.	4A/	.	4c/	.	.	.
!	!	!LO:LB:g=original	!	!	!	!	!	!	!
=107	=107	=107	=107	=107	=107	=107	=107	=107	=107
!	!	!LO:TX:a:Bi:t=1.	!	!	!	!	!	!	!
1r	.	1r	.	4B\	.	4d\	.	4dd\	A-
.	.	.	.	4c\	.	4e\	.	8cc\L	.
.	.	.	.	.	.	.	.	8b\J	.
.	.	.	.	4d\	.	4f\	.	4a\	.
.	.	.	.	8c\L	.	4g\	.	4dd\	.
.	.	.	.	8B\J	.	.	.	.	.
=108-	=108-	=108	=108	=108	=108	=108	=108	=108	=108
2r	.	2r	.	2c\	.	2e\	-men	4g\	.
.	.	.	.	.	.	.	.	4a\	.
4G\	A-	4G\	a-	2B\	-men	2r	.	4b\	.
8F\L	.	8F\L	.	.	.	.	.	4cc\	.
8E\J	.	8E\J	.	.	.	.	.	.	.
=109	=109	=109	=109	=109	=109	=109	=109	=109	=109
!	!	!	!	!LO:TX:a:Bi:t=1.	!	!	!	!	!
4D\	.	4D\	.	1r	.	1r	.	4dd\	.
4G\	.	4G\	.	.	.	.	.	8cc\L	.
.	.	.	.	.	.	.	.	8b\J	.
4C/	.	4C/	.	.	.	.	.	2cc\	.
4D/	.	4D/	.	.	.	.	.	.	.
=110	=110	=110	=110	=110	=110	=110	=110	=110	=110
4E\	.	4E\	.	4e\	A-	4g\	A-	2b\	-men
4F\	.	4F\	.	8d\L	.	8f\L	.	.	.
.	.	.	.	8c\J	.	8e\J	.	.	.
4G\	.	4G\	.	4B\	.	4d\	.	2r	.
8F\L	.	8F\L	.	4e\	.	4g\	.	.	.
8E\J	.	8E\J	.	.	.	.	.	.	.
=111	=111	=111	=111	=111	=111	=111	=111	=111	=111
2F\	.	2F\	.	4A\	.	4c\	.	2r	.
.	.	.	.	4B\	.	4d\	.	.	.
2E\	-men	2E\	-men	4c\	.	4e\	.	4ee\	A-
.	.	.	.	4d\	.	4f\	.	8dd\L	.
.	.	.	.	.	.	.	.	8cc\J	.
=112	=112	=112	=112	=112	=112	=112	=112	=112	=112
!	!	!LO:TX:a:B:t=1.	!	!	!	!	!	!	!
1r	.	1r	.	4e\	.	4g\	.	4b\	.
.	.	.	.	8d\L	.	8f\L	.	4ee\	.
.	.	.	.	8c\J	.	8e\J	.	.	.
.	.	.	.	2d\	.	2f\	.	4a\	.
.	.	.	.	.	.	.	.	4b\	.
=113	=113	=113	=113	=113	=113	=113	=113	=113	=113
4A\	A-	4A\	a-	2c\	-men	2e\	-men	4cc\	.
8G\L	.	8G\L	.	.	.	.	.	4dd\	.
8F\J	.	8F\J	.	.	.	.	.	.	.
4E\	.	4E\	.	2r	.	2r	.	4ee\	.
4A\	.	4A\	.	.	.	.	.	8dd\L	.
.	.	.	.	.	.	.	.	8cc\J	.
!	!	!	!	!LO:PB:g=original	!	!LO:PB:g=original	!	!LO:LB:g=original	!
=114	=114	=114	=114	=114	=114	=114	=114	=114	=114
4D\	.	4D\	.	4d\	A-	2r	.	2dd\	.
4E\	.	4E\	.	8c\L	.	.	.	.	.
.	.	.	.	8B\J	.	.	.	.	.
4F\	.	4F\	.	4A\	.	4a\	A-	2cc\	-men
4G\	.	4G\	.	4B\	.	8g\L	.	.	.
.	.	.	.	.	.	8f\J	.	.	.
!	!	!LO:LB:g=original	!	!	!	!	!	!	!
=115	=115	=115	=115	=115	=115	=115	=115	=115	=115
4A\	.	4A\	.	4c\	.	4e\	.	2r	.
8G\L	.	(>8G\L	.	4d\	.	4a\	.	.	.
8F\J	.	8F\J)	.	.	.	.	.	.	.
2G\	.	2G\	.	2B\	-men	4d\	.	4dd\	A-
.	.	.	.	.	.	4e\	.	8cc\L	.
.	.	.	.	.	.	.	.	8b\J	.
=116	=116	=116	=116	=116	=116	=116	=116	=116	=116
!	!	!	!	!LO:TX:a:B:t=1.	!	!	!	!	!
2F\	-men	2F\	-men	1r	.	4f\	.	4a\	.
.	.	.	.	.	.	4g\	.	4b\	.
2r	.	2r	.	.	.	4a\	.	4cc\	.
.	.	.	.	.	.	(>8g\L	.	4dd\	.
.	.	.	.	.	.	8f\J)	.	.	.
!LO:LB:g=original	!	!	!	!	!	!	!	!	!
=117	=117	=117	=117	=117	=117	=117	=117	=117	=117
4G\	A-	4G\	a-	4d\	A-	2g\	.	2b\	-men
8F\L	.	8F\L	.	4e\	.	.	.	.	.
8E\J	.	8E\J	.	.	.	.	.	.	.
4D/	.	4D\	.	4f\	.	4f\	.	4dd\	A-
4E/	.	4E\	.	8e\L	.	4g\	.	8cc\L	.
.	.	.	.	8d\J	.	.	.	8b\J	.
=118	=118	=118	=118	=118	=118	=118	=118	=118	=118
4F\	.	4F\	.	4c\	.	(>4a\	.	4a\	.
4E\	.	4E\	.	4G/	.	4g\)	.	8b\L	.
.	.	.	.	.	.	.	.	8cc\J	.
2D\	.	2D/	.	[<2A/	.	2f\	.	4dd\	.
.	.	.	.	.	.	.	.	4cc\	.
=119	=119	=119	=119	=119	=119	=119	=119	=119	=119
1E	.	1E	.	2A/]	.	1e	.	1b	.
.	.	.	.	2G#X/	.	.	.	.	.
=120-	=120-	=120	=120	=120	=120	=120	=120	=120	=120
!LO:N:vis=0	!	!LO:N:vis=0	!	!LO:N:vis=0	!	!LO:N:vis=0	!	!LO:N:vis=0	!
[y1AA;>	-men.	[y1AA;>	-men	[y1A;>	-men.	[y1e;>	-men	[y1a;<	-men
=121-	=121-	=121-	=121-	=121-	=121-	=121-	=121-	=121-	=121-
!LO:TX:b:Bi:t=Graduale Sequit	!	!	!	!	!	!	!	!	!
!	!	!	!	!	!	!LO:TX:a:t=P:w źródle ozdobna kreska końcowa:problem	!	!LO:TX:a:t=P:w źródle ozdobna kreska końcowa:problem	!
!LO:TX:a:t=P:w źródle ozdobna kreska końcowa:problem	!	!	!	!	!	!	!	!	!
1AA]yy	.	1AA]yy	.	1A]yy	.	1e]yy	.	1a]yy	.
==	==	==	==	==	==	==	==	==	==
*-	*-	*-	*-	*-	*-	*-	*-	*-	*-
!!title: @{OTL};
!!!RDF**kern: > = above
!!!RDF**kern: < = below
!!!EED: Wojciech Jakubiak-Danek
!!!EST: 2021-03-03
!!!URL-scan: http://repozytorium.nifc.pl/skany/pl-kk-nut--i-269
!!!ONB-nifc: UWAGA: utwory w zbiorze: 1. Rorate caeli, 2. Tollite portas
!!!AIN: 1 alto 2 empty 1 tenor 1 vox
!!!ENC: Andrzej Borzym
!!!END: 2021-02-15
